src/assets/outline/Ankr.svg

<svg width="24" height="24" viewBox="0 0 24 24"  xmlns="http://www.w3.org/2000/svg">
<path d="M20.8899 10.5303C20.4799 10.5303 20.1399 10.1903 20.1399 9.78032V6.91032L11.9999 2.84031L3.85986 6.91032V9.78032C3.85986 10.1903 3.51986 10.5303 3.10986 10.5303C2.69986 10.5303 2.35986 10.1903 2.35986 9.78032V6.45031C2.35986 6.17031 2.51991 5.91032 2.77991 5.78031L11.6699 1.34031C11.8799 1.23031 12.1299 1.23031 12.3399 1.34031L21.2299 5.78031C21.4799 5.91032 21.6499 6.17031 21.6499 6.45031V9.78032C21.6399 10.1903 21.2999 10.5303 20.8899 10.5303Z" />
<path d="M11.9999 22.7505C11.8799 22.7505 11.7699 22.7205 11.6699 22.6705L2.77991 18.2305C2.52991 18.1005 2.35986 17.8405 2.35986 17.5605V14.2305C2.35986 13.8205 2.69986 13.4805 3.10986 13.4805C3.51986 13.4805 3.85986 13.8205 3.85986 14.2305V17.1005L11.9999 21.1705L20.1399 17.1005V14.2305C20.1399 13.8205 20.4799 13.4805 20.8899 13.4805C21.2999 13.4805 21.6399 13.8205 21.6399 14.2305V17.5605C21.6399 17.8405 21.4798 18.1005 21.2198 18.2305L12.3299 22.6705C12.2299 22.7205 12.1199 22.7505 11.9999 22.7505Z" />
<path d="M12 22.7495C11.59 22.7495 11.25 22.4095 11.25 21.9995V16.4395C11.25 16.0295 11.59 15.6895 12 15.6895C12.41 15.6895 12.75 16.0295 12.75 16.4395V21.9995C12.75 22.4095 12.41 22.7495 12 22.7495Z" />
<path d="M12.0001 17.1906C9.14006 17.1906 6.81006 14.8605 6.81006 12.0005C6.81006 9.14055 9.14006 6.81055 12.0001 6.81055C14.8601 6.81055 17.1901 9.14055 17.1901 12.0005C17.1901 14.8605 14.8601 17.1906 12.0001 17.1906ZM12.0001 8.31055C9.96006 8.31055 8.31006 9.97055 8.31006 12.0005C8.31006 14.0305 9.97006 15.6906 12.0001 15.6906C14.0301 15.6906 15.6901 14.0305 15.6901 12.0005C15.6901 9.97055 14.0401 8.31055 12.0001 8.31055Z" />
</svg>

<?xml version="1.0" encoding="UTF-8"?>
<svg width="24" height="24" viewBox="0 0 24 24" xmlns="http://www.w3.org/2000/svg">
 <path d="m20.89 10.53c-0.41 0-0.75-0.34-0.75-0.74998v-2.87l-8.14-4.07-8.14 4.07v2.87c0 0.40998-0.34 0.74998-0.75 0.74998s-0.75-0.34-0.75-0.74998v-3.33c0-0.28 0.16005-0.53999 0.42005-0.67l8.89-4.44c0.21-0.11 0.46-0.11 0.67 0l8.89 4.44c0.25 0.13001 0.42 0.39 0.42 0.67v3.33c-0.01 0.40998-0.35 0.74998-0.76 0.74998z"/>
 <path d="m12 22.75c-0.12 0-0.23-0.03-0.33-0.08l-8.89-4.44c-0.25-0.13-0.42005-0.39-0.42005-0.67v-3.33c0-0.41 0.34-0.75 0.75-0.75s0.75 0.34 0.75 0.75v2.87l8.14 4.07 8.14-4.07v-2.87c0-0.41 0.34-0.75 0.75-0.75s0.75 0.34 0.75 0.75v3.33c0 0.28-0.1601 0.54-0.4201 0.67l-8.8899 4.44c-0.1 0.05-0.21 0.08-0.33 0.08z"/>
 <path d="m12 22.75c-0.41 0-0.75-0.34-0.75-0.75v-5.56c0-0.41 0.34-0.75 0.75-0.75s0.75 0.34 0.75 0.75v5.56c0 0.41-0.34 0.75-0.75 0.75z"/>
 <path d="m12 17.191c-2.86 0-5.19-2.3301-5.19-5.1901 0-2.86 2.33-5.19 5.19-5.19 2.86 0 5.19 2.33 5.19 5.19 0 2.86-2.33 5.1901-5.19 5.1901zm0-8.88c-2.04 0-3.69 1.66-3.69 3.69 0 2.03 1.66 3.6901 3.69 3.6901 2.03 0 3.69-1.6601 3.69-3.6901 0-2.03-1.65-3.69-3.69-3.69z"/>
</svg>
